assets/facce/bunkerSis.svg

<svg width="123" height="147" viewBox="0 0 123 147" fill="none" xmlns="http://www.w3.org/2000/svg">
<path d="M29.6249 136.649C13.3891 130.636 12.7878 119.212 11.5851 113.199C10.7145 108.846 11.4196 102.918 12.7878 96.3264C4.36923 96.8906 -1.04269 88.5468 3.76791 75.3187C7.61638 64.7362 12.5873 67.7025 14.5917 70.5085C15.3264 49.4638 24.2129 36.2357 62.6977 35.0332C93.4855 34.0711 107.196 54.274 110.202 64.4957C109.352 64.7083 108.119 66.3182 107.291 70.5085C109.865 66.5 116.095 61.4894 120.425 73.5149C125.837 88.5468 113.748 98.1672 106.864 93.9583C107.709 112.643 106.742 119.716 95.1692 131.839C82.5414 145.067 68.7109 142.06 65.103 142.06C61.495 142.06 57.8871 148.674 51.8739 142.06C45.8606 135.446 45.8606 142.662 29.6249 136.649Z" fill="white"/>
<path d="M14.5917 70.5085C15.3935 73.3145 16.516 80.8505 14.5917 88.5468C13.9277 91.2027 13.3095 93.8127 12.7878 96.3264M14.5917 70.5085C15.3264 49.4638 24.2129 36.2357 62.6977 35.0332C93.4855 34.0711 107.196 54.274 110.202 64.4957C109.352 64.7083 108.119 66.3182 107.291 70.5085M14.5917 70.5085C12.5873 67.7025 7.61638 64.7362 3.76791 75.3187C-1.04269 88.5468 4.36923 96.8906 12.7878 96.3264M12.7878 96.3264C11.4196 102.918 10.7145 108.846 11.5851 113.199C12.7878 119.212 13.3891 130.636 29.6249 136.649C45.8606 142.662 45.8606 135.446 51.8739 142.06C57.8871 148.674 61.495 142.06 65.103 142.06C68.7109 142.06 82.5414 145.067 95.1692 131.839C106.742 119.716 107.709 112.643 106.864 93.9583M107.291 70.5085C106.557 74.2212 106.142 79.9597 106.594 88.5468C106.695 90.4555 106.787 92.2551 106.864 93.9583M107.291 70.5085C109.865 66.5 116.095 61.4894 120.425 73.5149C125.837 88.5468 113.748 98.1672 106.864 93.9583" stroke="black" stroke-width="2" stroke-linecap="round" stroke-linejoin="round"/>
<path d="M20.6055 69.9069C21.4072 70.7086 23.7324 72.0715 26.6187 71.1094C30.2267 69.9069 30.2267 65.0967 39.2465 65.0967C46.4624 65.0967 51.8743 69.1052 53.6783 71.1094" stroke="black" stroke-width="3" stroke-linecap="round" stroke-linejoin="round"/>
<path d="M101.183 69.9069C100.381 70.7086 98.0557 72.0715 95.1694 71.1094C91.5614 69.9069 91.5614 65.0967 82.5416 65.0967C75.3257 65.0967 69.9137 69.1052 68.1098 71.1094" stroke="black" stroke-width="3" stroke-linecap="round" stroke-linejoin="round"/>
<path d="M59.1782 6.77322C60.855 5.45293 62.5673 4.23751 64.2565 3.14081C67.0989 1.29547 70.8673 2.10297 72.675 4.96939C77.7083 6.51221 84.9628 10.613 88.2455 17.5962C95.5653 18.9281 100.112 23.5379 100.296 31.4256C104.806 32.1684 112.445 36.0822 109.911 45.8589C114.217 49.4657 120.906 60.0463 113.209 66.2996C105.512 72.5529 97.5743 60.3404 94.5676 54.3544C91.7571 53.2596 89.1658 51.5358 87.3517 49.9925C83.9609 50.2147 80.5981 49.4513 78.3319 48.5714C70.6832 54.94 62.2343 54.6141 57.8868 53.0715C54.8561 50.8719 52.3916 48.662 50.4266 46.4575C45.23 46.7795 41.1684 46.5458 38.0431 45.8589C35.7706 47.9982 31.2336 50.7082 26.4655 49.9925C24.8501 52.0709 22.2735 54.6204 19.4021 56.1257C19.6025 61.3209 17.9589 71.3503 9.78089 69.9073C1.60288 68.4642 4.23329 56.0295 6.57074 49.9925C4.41522 42.3567 12.6735 36.5594 17.6547 34.4319C20.2147 25.9978 28.9808 17.5962 35.0365 17.5962C40.8092 5.57067 53.5363 5.37024 59.1782 6.77322Z" fill="black"/>
<path d="M57.8868 53.0715C70.1765 47.7779 89.1364 31.071 72.675 4.96939M57.8868 53.0715C54.8561 50.8719 52.3916 48.662 50.4266 46.4575M57.8868 53.0715C62.2343 54.6141 70.6832 54.94 78.3319 48.5714M72.675 4.96939V4.96939C70.8673 2.10297 67.0989 1.29547 64.2565 3.14081C62.5673 4.23751 60.855 5.45293 59.1783 6.77322M72.675 4.96939C77.7083 6.51221 84.9628 10.613 88.2455 17.5962M59.1783 6.77322C53.5363 5.37024 40.8092 5.57067 35.0365 17.5962M59.1783 6.77322C47.0975 16.286 36.8648 31.2425 50.4266 46.4575M35.0365 17.5962C29.1089 29.9445 23.663 42.6985 38.0431 45.8589M35.0365 17.5962C28.9808 17.5962 20.2147 25.9978 17.6547 34.432M50.4266 46.4575C45.23 46.7795 41.1684 46.5458 38.0431 45.8589M38.0431 45.8589C35.7706 47.9982 31.2336 50.7082 26.4655 49.9925M78.3319 48.5714C81.6152 45.8376 84.7511 41.8701 87.3517 36.2358C90.8835 28.5842 90.5068 22.4064 88.2455 17.5962M78.3319 48.5714C80.5981 49.4513 83.9609 50.2147 87.3517 49.9925M88.2455 17.5962C95.5653 18.9281 100.112 23.5379 100.296 31.4256M100.296 31.4256C100.361 34.2207 99.8783 37.4275 98.7769 41.046C96.8196 47.4767 92.0586 49.6841 87.3517 49.9925M100.296 31.4256C104.806 32.1684 112.445 36.0822 109.911 45.8589M87.3517 49.9925C89.1658 51.5358 91.7571 53.2596 94.5676 54.3544M109.911 45.8589C109.689 46.7173 109.388 47.6208 108.999 48.5714C105.863 56.2492 99.8311 56.4047 94.5676 54.3544M109.911 45.8589C114.217 49.4657 120.906 60.0463 113.209 66.2996C105.512 72.5529 97.5743 60.3404 94.5676 54.3544M17.6547 34.432C16.4016 38.5603 16.6355 42.6965 19.4021 45.8589C21.6453 48.4232 24.0842 49.6351 26.4655 49.9925M17.6547 34.432C12.6735 36.5594 4.41522 42.3567 6.57074 49.9925M26.4655 49.9925C24.8501 52.0709 22.2735 54.6204 19.4021 56.1257M19.4021 56.1257C15.5943 58.1219 11.2679 58.2819 7.97692 53.0715C7.3106 52.0166 6.85201 50.9889 6.57074 49.9925M19.4021 56.1257C19.6025 61.3209 17.9589 71.3503 9.78089 69.9073C1.60288 68.4642 4.23329 56.0295 6.57074 49.9925" stroke="white" stroke-linecap="round" stroke-linejoin="round"/>
<path d="M27.2197 77.7243L32.0303 80.1294C34.4356 76.7222 40.8097 71.952 47.0634 80.1294" stroke="black" stroke-width="3" stroke-linecap="round" stroke-linejoin="round"/>
<path d="M94.5684 77.7243L89.7578 80.1294C87.3525 76.7222 80.9784 71.952 74.7247 80.1294" stroke="black" stroke-width="3" stroke-linecap="round" stroke-linejoin="round"/>
<path d="M51.2724 93.3574C49.4684 95.3617 46.9429 99.8512 51.2724 101.775C55.6019 103.699 57.0852 100.573 57.2856 98.7689C57.4861 99.771 58.368 101.775 60.2923 101.775C62.2165 101.775 63.9002 99.771 63.9002 98.7689C65.1029 100.372 66.9068 103.218 69.3121 101.775C72.3188 99.9715 72.3188 96.3638 69.9135 93.9587" stroke="black" stroke-width="2" stroke-linecap="round" stroke-linejoin="round"/>
<path d="M54.8803 108.99C51.8736 109.592 51.8736 118.611 48.2657 118.611C49.2679 119.212 51.7534 120.054 53.6776 118.611C56.0829 116.807 57.2856 114.402 59.6908 114.402C62.0961 114.402 62.6975 114.402 65.1028 117.408C67.5081 120.415 70.3142 119.413 71.7173 118.611C67.5081 118.611 68.1094 108.99 65.1028 108.99C62.0961 108.99 62.0961 112.598 59.6908 112.598C57.2856 112.598 57.8869 108.389 54.8803 108.99Z" fill="black"/>
<path d="M45.2591 113.801C45.0586 115.404 45.3793 118.611 48.2657 118.611M48.2657 118.611C51.8736 118.611 51.8736 109.592 54.8803 108.99C57.8869 108.389 57.2856 112.598 59.6908 112.598C62.0961 112.598 62.0961 108.99 65.1028 108.99C68.1094 108.99 67.5081 118.611 71.7173 118.611M48.2657 118.611C49.2679 119.212 51.7534 120.054 53.6776 118.611C56.0829 116.807 57.2856 114.402 59.6908 114.402C62.0961 114.402 62.6975 114.402 65.1028 117.408C67.5081 120.415 70.3142 119.413 71.7173 118.611M71.7173 118.611C75.0848 118.611 73.9222 115.404 74.1226 113.801" stroke="black" stroke-width="2" stroke-linecap="round" stroke-linejoin="round"/>
<path d="M24.2125 71.1098C23.0099 78.1247 24.0923 92.0342 38.043 91.5532C50.1848 91.1345 53.2275 85.054 53.6518 78.9264M53.0761 69.9072C53.3556 72.353 53.8788 75.6464 53.6518 78.9264M53.6518 78.9264C55.0634 77.1225 58.6083 73.5149 61.4946 73.5149C64.381 73.5149 67.107 77.1225 68.1092 78.9264" stroke="black" stroke-width="2" stroke-linecap="round" stroke-linejoin="round"/>
<path d="M97.5746 71.1098C98.7772 78.1247 97.6948 92.0342 83.7441 91.5532C71.6023 91.1345 68.5596 85.054 68.1354 78.9264M68.711 69.9072C68.4315 72.353 67.9083 75.6464 68.1354 78.9264M68.1354 78.9264C66.7237 77.1225 63.1788 73.5149 60.2925 73.5149C57.4061 73.5149 54.6801 77.1225 53.6779 78.9264" stroke="black" stroke-width="2" stroke-linecap="round" stroke-linejoin="round"/>
<ellipse cx="20.6048" cy="76.5216" rx="1.80397" ry="1.80383" fill="black"/>
<ellipse cx="20.6048" cy="82.5343" rx="1.80397" ry="1.80383" fill="black"/>
<ellipse cx="20.6048" cy="88.547" rx="1.80397" ry="1.80383" fill="black"/>
<ellipse cx="20.6048" cy="94.5597" rx="1.80397" ry="1.80383" fill="black"/>
<ellipse cx="20.6048" cy="100.572" rx="1.80397" ry="1.80383" fill="black"/>
<ellipse cx="20.6048" cy="106.585" rx="1.80397" ry="1.80383" fill="black"/>
<ellipse cx="20.6048" cy="112.598" rx="1.80397" ry="1.80383" fill="black"/>
<ellipse cx="20.6048" cy="118.61" rx="1.80397" ry="1.80383" fill="black"/>
<ellipse cx="20.6048" cy="124.623" rx="1.80397" ry="1.80383" fill="black"/>
<ellipse cx="19.4026" cy="130.636" rx="1.80397" ry="1.80383" fill="black"/>
<path d="M18.8013 136.649C18.8013 137.645 17.9936 138.452 16.9973 138.452C16.001 138.452 15.1934 137.645 15.1934 136.649C15.1934 135.652 16.001 134.845 16.9973 134.845C17.9936 134.845 18.8013 135.652 18.8013 136.649Z" fill="black"/>
<ellipse cx="13.3889" cy="141.459" rx="1.80397" ry="1.80383" fill="black"/>
<ellipse cx="8.57839" cy="137.852" rx="1.80397" ry="1.80383" fill="black"/>
<ellipse cx="7.37624" cy="130.636" rx="1.80397" ry="1.80383" fill="black"/>
<ellipse cx="7.37624" cy="124.623" rx="1.80397" ry="1.80383" fill="black"/>
<ellipse cx="7.37624" cy="118.61" rx="1.80397" ry="1.80383" fill="black"/>
<ellipse cx="7.37624" cy="112.598" rx="1.80397" ry="1.80383" fill="black"/>
<ellipse cx="7.37624" cy="106.585" rx="1.80397" ry="1.80383" fill="black"/>
<ellipse cx="7.37624" cy="100.572" rx="1.80397" ry="1.80383" fill="black"/>
<circle cx="1.95835" cy="1.95835" r="1.95835" transform="matrix(-1 0 0 1 104.944 72.1201)" fill="black"/>
<circle cx="1.95835" cy="1.95835" r="1.95835" transform="matrix(-1 0 0 1 104.944 78.6475)" fill="black"/>
<circle cx="1.95835" cy="1.95835" r="1.95835" transform="matrix(-1 0 0 1 104.944 85.1758)" fill="black"/>
<circle cx="1.95835" cy="1.95835" r="1.95835" transform="matrix(-1 0 0 1 104.944 91.7031)" fill="black"/>
<circle cx="1.95835" cy="1.95835" r="1.95835" transform="matrix(-1 0 0 1 104.944 98.2314)" fill="black"/>
<circle cx="1.95835" cy="1.95835" r="1.95835" transform="matrix(-1 0 0 1 104.944 104.759)" fill="black"/>
<circle cx="1.95835" cy="1.95835" r="1.95835" transform="matrix(-1 0 0 1 104.944 111.287)" fill="black"/>
<circle cx="1.95835" cy="1.95835" r="1.95835" transform="matrix(-1 0 0 1 104.944 117.814)" fill="black"/>
<circle cx="1.95835" cy="1.95835" r="1.95835" transform="matrix(-1 0 0 1 104.944 124.343)" fill="black"/>
<circle cx="1.95835" cy="1.95835" r="1.95835" transform="matrix(-1 0 0 1 106.25 130.87)" fill="black"/>
<circle cx="1.95835" cy="1.95835" r="1.95835" transform="matrix(-1 0 0 1 108.86 137.398)" fill="black"/>
<circle cx="1.95835" cy="1.95835" r="1.95835" transform="matrix(-1 0 0 1 112.777 142.62)" fill="black"/>
<circle cx="1.95835" cy="1.95835" r="1.95835" transform="matrix(-1 0 0 1 116.694 138.704)" fill="black"/>
<circle cx="1.95835" cy="1.95835" r="1.95835" transform="matrix(-1 0 0 1 118 130.87)" fill="black"/>
<circle cx="1.95835" cy="1.95835" r="1.95835" transform="matrix(-1 0 0 1 118 124.343)" fill="black"/>
<circle cx="1.95835" cy="1.95835" r="1.95835" transform="matrix(-1 0 0 1 118 117.814)" fill="black"/>
<circle cx="1.95835" cy="1.95835" r="1.95835" transform="matrix(-1 0 0 1 118 111.287)" fill="black"/>
<circle cx="1.95835" cy="1.95835" r="1.95835" transform="matrix(-1 0 0 1 118 104.759)" fill="black"/>
<circle cx="1.95835" cy="1.95835" r="1.95835" transform="matrix(-1 0 0 1 118 98.2314)" fill="black"/>
</svg>

<?xml version="1.0" encoding="utf-8"?>
<!-- Generator: Adobe Illustrator 28.1.0, SVG Export Plug-In . SVG Version: 6.00 Build 0)  -->
<svg version="1.1" id="Livello_1" xmlns="http://www.w3.org/2000/svg" xmlns:xlink="http://www.w3.org/1999/xlink" x="0px" y="0px"
	 viewBox="0 0 123 147" style="enable-background:new 0 0 123 147;" xml:space="preserve">
<style type="text/css">
	.st0{fill:#FFFFFF;}
	.st1{fill:none;stroke:#828282;stroke-width:2;stroke-linecap:round;stroke-linejoin:round;}
	.st2{fill:none;stroke:#828282;stroke-width:3;stroke-linecap:round;stroke-linejoin:round;}
	.st3{fill:#828282;}
	.st4{fill:none;stroke:#FFFFFF;stroke-linecap:round;stroke-linejoin:round;}
</style>
<path class="st0" d="M29.6,136.6c-16.2-6-16.8-17.4-18-23.5c-0.9-4.4-0.2-10.3,1.2-16.9c-8.4,0.6-13.8-7.8-9-21
	c3.8-10.6,8.8-7.6,10.8-4.8c0.7-21,9.6-34.3,48.1-35.5c30.8-1,44.5,19.2,47.5,29.5c-0.9,0.2-2.1,1.8-2.9,6c2.6-4,8.8-9,13.1,3
	c5.4,15-6.7,24.7-13.6,20.4c0.8,18.7-0.1,25.8-11.7,37.9c-12.6,13.2-26.5,10.2-30.1,10.2c-3.6,0-7.2,6.6-13.2,0
	C45.9,135.4,45.9,142.7,29.6,136.6z"/>
<path class="st1" d="M14.6,70.5c0.8,2.8,1.9,10.3,0,18c-0.7,2.7-1.3,5.3-1.8,7.8 M14.6,70.5c0.7-21,9.6-34.3,48.1-35.5
	c30.8-1,44.5,19.2,47.5,29.5c-0.9,0.2-2.1,1.8-2.9,6 M14.6,70.5c-2-2.8-7-5.8-10.8,4.8c-4.8,13.2,0.6,21.6,9,21 M12.8,96.3
	c-1.4,6.6-2.1,12.5-1.2,16.9c1.2,6,1.8,17.4,18,23.5c16.2,6,16.2-1.2,22.2,5.4c6,6.6,9.6,0,13.2,0c3.6,0,17.4,3,30.1-10.2
	c11.6-12.1,12.5-19.2,11.7-37.9 M107.3,70.5c-0.7,3.7-1.1,9.5-0.7,18c0.1,1.9,0.2,3.7,0.3,5.4 M107.3,70.5c2.6-4,8.8-9,13.1,3
	c5.4,15-6.7,24.7-13.6,20.4"/>
<path class="st2" d="M20.6,69.9c0.8,0.8,3.1,2.2,6,1.2c3.6-1.2,3.6-6,12.6-6c7.2,0,12.6,4,14.4,6"/>
<path class="st2" d="M101.2,69.9c-0.8,0.8-3.1,2.2-6,1.2c-3.6-1.2-3.6-6-12.6-6c-7.2,0-12.6,4-14.4,6"/>
<path class="st3" d="M59.2,6.8c1.7-1.3,3.4-2.5,5.1-3.6c2.8-1.8,6.6-1,8.4,1.8c5,1.5,12.3,5.6,15.6,12.6c7.3,1.3,11.9,5.9,12.1,13.8
	c4.5,0.7,12.1,4.7,9.6,14.4c4.3,3.6,11,14.2,3.3,20.4s-15.6-6-18.6-11.9c-2.8-1.1-5.4-2.8-7.2-4.4c-3.4,0.2-6.8-0.5-9-1.4
	c-7.6,6.4-16.1,6-20.4,4.5c-3-2.2-5.5-4.4-7.5-6.6c-5.2,0.3-9.3,0.1-12.4-0.6c-2.3,2.1-6.8,4.8-11.6,4.1c-1.6,2.1-4.2,4.6-7.1,6.1
	c0.2,5.2-1.4,15.2-9.6,13.8C1.6,68.5,4.2,56,6.6,50c-2.2-7.6,6.1-13.4,11.1-15.6C20.2,26,29,17.6,35,17.6
	C40.8,5.6,53.5,5.4,59.2,6.8z"/>
<path class="st4" d="M57.9,53.1c12.3-5.3,31.2-22,14.8-48.1 M57.9,53.1c-3-2.2-5.5-4.4-7.5-6.6 M57.9,53.1
	c4.3,1.5,12.8,1.9,20.4-4.5 M72.7,5L72.7,5c-1.8-2.9-5.6-3.7-8.4-1.8c-1.7,1.1-3.4,2.3-5.1,3.6 M72.7,5c5,1.5,12.3,5.6,15.6,12.6
	 M59.2,6.8C53.5,5.4,40.8,5.6,35,17.6 M59.2,6.8c-12.1,9.5-22.3,24.5-8.8,39.7 M35,17.6c-5.9,12.3-11.4,25.1,3,28.3 M35,17.6
	c-6.1,0-14.8,8.4-17.4,16.8 M50.4,46.5c-5.2,0.3-9.3,0.1-12.4-0.6 M38,45.9c-2.3,2.1-6.8,4.8-11.6,4.1 M78.3,48.6
	c3.3-2.7,6.4-6.7,9-12.3c3.5-7.7,3.2-13.8,0.9-18.6 M78.3,48.6c2.3,0.9,5.6,1.6,9,1.4 M88.2,17.6c7.3,1.3,11.9,5.9,12.1,13.8
	 M100.3,31.4c0.1,2.8-0.4,6-1.5,9.6c-2,6.4-6.7,8.6-11.4,8.9 M100.3,31.4c4.5,0.7,12.1,4.7,9.6,14.4 M87.4,50
	c1.8,1.5,4.4,3.3,7.2,4.4 M109.9,45.9c-0.2,0.9-0.5,1.8-0.9,2.7c-3.1,7.7-9.2,7.8-14.4,5.8 M109.9,45.9c4.3,3.6,11,14.2,3.3,20.4
	s-15.6-6-18.6-11.9 M17.7,34.4c-1.3,4.1-1,8.3,1.7,11.4c2.2,2.6,4.7,3.8,7.1,4.1 M17.7,34.4c-5,2.1-13.2,7.9-11.1,15.6 M26.5,50
	c-1.6,2.1-4.2,4.6-7.1,6.1 M19.4,56.1c-3.8,2-8.1,2.2-11.4-3.1C7.3,52,6.9,51,6.6,50 M19.4,56.1c0.2,5.2-1.4,15.2-9.6,13.8
	C1.6,68.5,4.2,56,6.6,50"/>
<path class="st2" d="M27.2,77.7l4.8,2.4c2.4-3.4,8.8-8.2,15,0"/>
<path class="st2" d="M94.6,77.7l-4.8,2.4c-2.4-3.4-8.8-8.2-15,0"/>
<path class="st1" d="M51.3,93.4c-1.8,2-4.3,6.5,0,8.4c4.3,1.9,5.8-1.2,6-3c0.2,1,1.1,3,3,3c1.9,0,3.6-2,3.6-3c1.2,1.6,3,4.4,5.4,3
	c3-1.8,3-5.4,0.6-7.8"/>
<path class="st3" d="M54.9,109c-3,0.6-3,9.6-6.6,9.6c1,0.6,3.5,1.4,5.4,0c2.4-1.8,3.6-4.2,6-4.2c2.4,0,3,0,5.4,3
	c2.4,3,5.2,2,6.6,1.2c-4.2,0-3.6-9.6-6.6-9.6c-3,0-3,3.6-5.4,3.6C57.3,112.6,57.9,108.4,54.9,109z"/>
<path class="st1" d="M45.3,113.8c-0.2,1.6,0.1,4.8,3,4.8 M48.3,118.6c3.6,0,3.6-9,6.6-9.6c3-0.6,2.4,3.6,4.8,3.6
	c2.4,0,2.4-3.6,5.4-3.6c3,0,2.4,9.6,6.6,9.6 M48.3,118.6c1,0.6,3.5,1.4,5.4,0c2.4-1.8,3.6-4.2,6-4.2c2.4,0,3,0,5.4,3
	c2.4,3,5.2,2,6.6,1.2 M71.7,118.6c3.4,0,2.2-3.2,2.4-4.8"/>
<path class="st1" d="M24.2,71.1C23,78.1,24.1,92,38,91.6c12.1-0.4,15.2-6.5,15.6-12.6 M53.1,69.9c0.3,2.4,0.8,5.7,0.6,9 M53.7,78.9
	c1.4-1.8,5-5.4,7.8-5.4c2.9,0,5.6,3.6,6.6,5.4"/>
<path class="st1" d="M97.6,71.1c1.2,7,0.1,20.9-13.8,20.4c-12.1-0.4-15.2-6.5-15.6-12.6 M68.7,69.9c-0.3,2.4-0.8,5.7-0.6,9
	 M68.1,78.9c-1.4-1.8-5-5.4-7.8-5.4c-2.9,0-5.6,3.6-6.6,5.4"/>
<ellipse class="st3" cx="20.6" cy="76.5" rx="1.8" ry="1.8"/>
<ellipse class="st3" cx="20.6" cy="82.5" rx="1.8" ry="1.8"/>
<ellipse class="st3" cx="20.6" cy="88.5" rx="1.8" ry="1.8"/>
<ellipse class="st3" cx="20.6" cy="94.6" rx="1.8" ry="1.8"/>
<ellipse class="st3" cx="20.6" cy="100.6" rx="1.8" ry="1.8"/>
<ellipse class="st3" cx="20.6" cy="106.6" rx="1.8" ry="1.8"/>
<ellipse class="st3" cx="20.6" cy="112.6" rx="1.8" ry="1.8"/>
<ellipse class="st3" cx="20.6" cy="118.6" rx="1.8" ry="1.8"/>
<ellipse class="st3" cx="20.6" cy="124.6" rx="1.8" ry="1.8"/>
<ellipse class="st3" cx="19.4" cy="130.6" rx="1.8" ry="1.8"/>
<path class="st3" d="M18.8,136.6c0,1-0.8,1.8-1.8,1.8c-1,0-1.8-0.8-1.8-1.8c0-1,0.8-1.8,1.8-1.8C18,134.8,18.8,135.7,18.8,136.6z"/>
<ellipse class="st3" cx="13.4" cy="141.5" rx="1.8" ry="1.8"/>
<ellipse class="st3" cx="8.6" cy="137.9" rx="1.8" ry="1.8"/>
<ellipse class="st3" cx="7.4" cy="130.6" rx="1.8" ry="1.8"/>
<ellipse class="st3" cx="7.4" cy="124.6" rx="1.8" ry="1.8"/>
<ellipse class="st3" cx="7.4" cy="118.6" rx="1.8" ry="1.8"/>
<ellipse class="st3" cx="7.4" cy="112.6" rx="1.8" ry="1.8"/>
<ellipse class="st3" cx="7.4" cy="106.6" rx="1.8" ry="1.8"/>
<ellipse class="st3" cx="7.4" cy="100.6" rx="1.8" ry="1.8"/>
<circle class="st3" cx="103" cy="74.1" r="2"/>
<circle class="st3" cx="103" cy="80.6" r="2"/>
<circle class="st3" cx="103" cy="87.1" r="2"/>
<circle class="st3" cx="103" cy="93.7" r="2"/>
<circle class="st3" cx="103" cy="100.2" r="2"/>
<circle class="st3" cx="103" cy="106.7" r="2"/>
<circle class="st3" cx="103" cy="113.2" r="2"/>
<circle class="st3" cx="103" cy="119.8" r="2"/>
<circle class="st3" cx="103" cy="126.3" r="2"/>
<circle class="st3" cx="104.3" cy="132.8" r="2"/>
<circle class="st3" cx="106.9" cy="139.4" r="2"/>
<circle class="st3" cx="110.8" cy="144.6" r="2"/>
<circle class="st3" cx="114.7" cy="140.7" r="2"/>
<circle class="st3" cx="116" cy="132.8" r="2"/>
<circle class="st3" cx="116" cy="126.3" r="2"/>
<circle class="st3" cx="116" cy="119.8" r="2"/>
<circle class="st3" cx="116" cy="113.2" r="2"/>
<circle class="st3" cx="116" cy="106.7" r="2"/>
<circle class="st3" cx="116" cy="100.2" r="2"/>
</svg>
